X: 4192
M: 6/8
L: 1/8
K: D
uF |\
|: f |\
a2f d2f | A2a agf | g2e c2e | A2g gfe |\
f2d g2e | a2f b2g | fed ABc | d3- d2 :|


